X:323
T:Dublin Reel, The
R:reel
H:See also #670, in G
D:Noel Hill: The Irish Concertina
Z:id:hn-reel-323
M:C|
K:D
dF~F2 dFeF|dF~F2 AFEF|1 dF~F2 dfed|cABG AFEF:|2 d2dc dfed|cABG AFEf||
|:eA~A2 eAfA|eA~A2 BAFA|1 eA~A2 egfe|dBcA BAFA:|2 e2ed egfe|dBcA BAFA||
|:d2dc dAFA|dcdA FDFA|1 d2dc dfed|cABG AFEF:|2 d2df e2eg|fdBc dfec||
P:Variations:
|:dF~F2 dfec|dF~F2 AFEF|1 dF~F2 d2ed|cABF AFEF:|2 d2dc d2ed|cABF ABcd||
|:eA~A2 eAfA|eA~A2 BAFA|1 eA~A2 e2fe|dBcA BAFA:|2 ~e3d e2fe|dBcA BAFA||
|:dfec dF~F2|dedB AFEF|1 Addc dfed|cABF AFEF:|2 dcdf egfe|dABc d3z||

